public/assets/github_logo.svg

<svg width="16" height="16" viewBox="0 0 16 16" fill="none" xmlns="http://www.w3.org/2000/svg">
<path opacity="0.9" d="M7.99724 0C3.5773 0 0 3.6747 0 8.20226C0 11.8254 2.29371 14.9049 5.46915 15.9867C5.87096 16.0611 5.99929 15.8092 5.99929 15.5917V14.0635C3.77258 14.5614 3.30941 13.0961 3.30941 13.0961C2.94666 12.146 2.42209 11.8941 2.42209 11.8941C1.69659 11.3847 2.47788 11.3962 2.47788 11.3962C3.28151 11.4534 3.70562 12.2433 3.70562 12.2433C4.41995 13.4968 5.57519 13.1362 6.03281 12.9244C6.10536 12.3921 6.31187 12.0315 6.54068 11.8254C4.766 11.6194 2.89644 10.9154 2.89644 7.76725C2.89644 6.8686 3.20895 6.14168 3.72238 5.56357C3.63867 5.35751 3.36522 4.52183 3.80051 3.39424C3.80051 3.39424 4.47017 3.17673 5.99929 4.23564C6.6355 4.05248 7.32198 3.96089 8.00283 3.96089C8.68368 3.96662 9.37009 4.05248 10.0063 4.23564C11.5354 3.17673 12.2051 3.39424 12.2051 3.39424C12.6404 4.52183 12.3669 5.35751 12.2832 5.56357C12.7966 6.13595 13.1091 6.8686 13.1091 7.76725C13.1091 10.9211 11.2396 11.6137 9.4538 11.814C9.73842 12.0658 10.0007 12.5695 10.0007 13.3308V15.5803C10.0007 15.7978 10.129 16.0554 10.5364 15.9752C13.7119 14.8877 16 11.814 16 8.19081C16 3.6747 12.4172 0 7.99724 0Z" fill="white"/>
</svg>

<svg width="16" height="16" fill="none" xmlns="http://www.w3.org/2000/svg"><path opacity=".9" d="M8 0a8.1 8.1 0 00-8 8.2A8.2 8.2 0 005.47 16c.4.07.53-.18.53-.4v-1.53c-2.23.5-2.7-.96-2.7-.96-.35-.95-.88-1.2-.88-1.2-.72-.52.06-.5.06-.5.8.05 1.23.84 1.23.84.71 1.26 1.87.9 2.32.68.08-.53.28-.89.51-1.1-1.77-.2-3.64-.9-3.64-4.05 0-.9.3-1.63.82-2.2a3 3 0 01.08-2.18s.67-.21 2.2.85a7.3 7.3 0 014 0c1.54-1.06 2.2-.85 2.2-.85a3 3 0 01.08 2.17c.52.58.83 1.3.83 2.2 0 3.16-1.87 3.85-3.66 4.05.29.26.55.76.55 1.52v2.25c0 .22.13.48.54.4A8.2 8.2 0 0016 8.19 8.1 8.1 0 008 0z" fill="#fff"/></svg>
